assets/Rosette/Flat/rosette_flat.svg

<svg width="32" height="32" viewBox="0 0 32 32" fill="none" xmlns="http://www.w3.org/2000/svg">
<path d="M22.463 6.64886C22.463 6.64886 24.463 5.85886 25.873 6.52886C28.3786 7.72753 28.736 9.94295 28.0145 11.6992C29.6527 12.6627 30.6985 14.6443 29.423 17.1089C28.713 18.4889 26.633 19.0689 26.633 19.0689C26.633 19.0689 28.003 20.7289 27.803 22.2789C27.4434 25.0189 25.4598 26.047 23.5632 25.9099C23.155 27.771 21.5949 29.3834 18.8529 28.9289C17.3129 28.6789 16.1229 26.8789 16.1229 26.8789C16.1229 26.8789 14.9629 28.6989 13.4329 28.9789C10.7054 29.4826 9.11734 27.9148 8.6649 26.068C6.76755 26.2543 4.75191 25.271 4.33295 22.5189C4.10295 20.9789 5.44295 19.2889 5.44295 19.2889C5.44295 19.2889 3.35295 18.7489 2.61295 17.3789C1.28894 14.9467 2.28977 12.9495 3.90529 11.9461C3.14435 10.201 3.46012 7.98028 5.94295 6.73886C7.34295 6.03886 9.36295 6.78886 9.36295 6.78886C9.36295 6.78886 9.23295 4.63886 10.3029 3.50886C12.2124 1.4985 14.4231 1.83495 15.8686 3.06289C17.2926 1.79087 19.5087 1.39569 21.463 3.37886C22.553 4.48886 22.463 6.64886 22.463 6.64886Z" fill="#FF822D"/>
<path d="M21.773 13.5789C22.493 13.3189 23.233 13.1389 23.933 13.1789C25.503 13.2589 27.153 14.7889 26.083 16.8989C25.643 17.7489 24.363 18.1089 24.363 18.1089C24.363 18.1089 25.203 19.1289 25.083 20.0789C24.773 22.4189 22.533 22.7289 21.203 21.8989C20.633 21.5489 20.143 21.0089 19.713 20.4189C19.703 20.4239 19.693 20.4314 19.683 20.4389C19.673 20.4464 19.663 20.4539 19.653 20.4589C20.093 21.0389 20.463 21.6589 20.633 22.3089C21.033 23.8289 20.093 25.8789 17.763 25.4889C16.813 25.3289 16.083 24.2289 16.083 24.2289C16.083 24.2289 15.373 25.3489 14.433 25.5189C12.113 25.9489 11.133 23.9189 11.503 22.3989C11.663 21.7489 12.023 21.1189 12.453 20.5289C12.443 20.5239 12.4355 20.5164 12.428 20.5089C12.4205 20.5014 12.413 20.4939 12.403 20.4889C11.993 21.0989 11.513 21.6389 10.943 22.0089C9.62296 22.8589 7.38296 22.5989 7.03296 20.2589C6.89296 19.3089 7.71296 18.2689 7.71296 18.2689C7.71296 18.2689 6.43296 17.9389 5.97296 17.0989C4.84296 15.0289 6.47296 13.4689 8.03296 13.3489C8.73296 13.2889 9.47296 13.4489 10.193 13.6989C10.193 13.6689 10.203 13.6489 10.213 13.6289C9.48296 13.4189 8.78296 13.1289 8.24296 12.6889C7.02296 11.6989 6.58296 9.48891 8.69296 8.42891C9.55296 7.99891 10.793 8.45891 10.793 8.45891C10.793 8.45891 10.713 7.13891 11.373 6.44891C13.003 4.72891 14.983 5.79891 15.583 7.24891C15.853 7.90891 15.933 8.67891 15.913 9.45891H15.973C15.943 8.67891 16.003 7.90891 16.253 7.22891C16.813 5.76891 18.783 4.66891 20.443 6.34891C21.123 7.03891 21.063 8.35891 21.063 8.35891C21.063 8.35891 22.303 7.87891 23.163 8.28891C25.303 9.30891 24.903 11.5289 23.703 12.5389C23.163 12.9889 22.483 13.2989 21.753 13.5189C21.758 13.5289 21.7605 13.5389 21.763 13.5489C21.7655 13.5589 21.768 13.5689 21.773 13.5789Z" fill="#FFB02E"/>
<path d="M18.123 12.829C20.283 12.829 21.183 15.589 19.433 16.859C20.103 18.909 17.753 20.619 16.003 19.349C14.253 20.619 11.903 18.909 12.573 16.859C10.823 15.589 11.723 12.829 13.883 12.829C14.553 10.779 17.453 10.779 18.123 12.829Z" fill="#FF6723"/>
<path d="M16.0029 17.1689C16.9031 17.1689 17.6329 16.4392 17.6329 15.5389C17.6329 14.6387 16.9031 13.9089 16.0029 13.9089C15.1027 13.9089 14.3729 14.6387 14.3729 15.5389C14.3729 16.4392 15.1027 17.1689 16.0029 17.1689Z" fill="#F4F4F4"/>
</svg>

<svg xmlns="http://www.w3.org/2000/svg" width="32" height="32" fill="none"><path fill="#FF822D" d="M22.463 6.649s2-.79 3.41-.12c2.506 1.199 2.863 3.414 2.142 5.17 1.638.964 2.683 2.945 1.408 5.41-.71 1.38-2.79 1.96-2.79 1.96s1.37 1.66 1.17 3.21c-.36 2.74-2.343 3.768-4.24 3.63-.408 1.862-1.968 3.474-4.71 3.02-1.54-.25-2.73-2.05-2.73-2.05s-1.16 1.82-2.69 2.1c-2.728.504-4.316-1.064-4.768-2.911-1.897.186-3.913-.797-4.332-3.55-.23-1.54 1.11-3.23 1.11-3.23s-2.09-.54-2.83-1.91c-1.324-2.431-.323-4.428 1.292-5.432-.76-1.745-.445-3.966 2.038-5.207 1.4-.7 3.42.05 3.42.05s-.13-2.15.94-3.28c1.91-2.01 4.12-1.674 5.566-.446 1.424-1.272 3.64-1.667 5.594.316 1.09 1.11 1 3.27 1 3.27Z"/><path fill="#FFB02E" d="M21.773 13.579c.72-.26 1.46-.44 2.16-.4 1.57.08 3.22 1.61 2.15 3.72-.44.85-1.72 1.21-1.72 1.21s.84 1.02.72 1.97c-.31 2.34-2.55 2.65-3.88 1.82-.57-.35-1.06-.89-1.49-1.48-.01.005-.02.012-.03.02-.01.007-.02.015-.03.02.44.58.81 1.2.98 1.85.4 1.52-.54 3.57-2.87 3.18-.95-.16-1.68-1.26-1.68-1.26s-.71 1.12-1.65 1.29c-2.32.43-3.3-1.6-2.93-3.12.16-.65.52-1.28.95-1.87a.098.098 0 0 1-.025-.02.098.098 0 0 0-.025-.02c-.41.61-.89 1.15-1.46 1.52-1.32.85-3.56.59-3.91-1.75-.14-.95.68-1.99.68-1.99s-1.28-.33-1.74-1.17c-1.13-2.07.5-3.63 2.06-3.75.7-.06 1.44.1 2.16.35 0-.03.01-.05.02-.07-.73-.21-1.43-.5-1.97-.94-1.22-.99-1.66-3.2.45-4.26.86-.43 2.1.03 2.1.03s-.08-1.32.58-2.01c1.63-1.72 3.61-.65 4.21.8.27.66.35 1.43.33 2.21h.06c-.03-.78.03-1.55.28-2.23.56-1.46 2.53-2.56 4.19-.88.68.69.62 2.01.62 2.01s1.24-.48 2.1-.07c2.14 1.02 1.74 3.24.54 4.25-.54.45-1.22.76-1.95.98.005.01.008.02.01.03a.14.14 0 0 0 .01.03Z"/><path fill="#FF6723" d="M18.123 12.829c2.16 0 3.06 2.76 1.31 4.03.67 2.05-1.68 3.76-3.43 2.49-1.75 1.27-4.1-.44-3.43-2.49-1.75-1.27-.85-4.03 1.31-4.03.67-2.05 3.57-2.05 4.24 0Z"/><path fill="#F4F4F4" d="M16.003 17.169a1.63 1.63 0 1 0 0-3.26 1.63 1.63 0 0 0 0 3.26Z"/></svg>
